X:1
T: The Day we paid the Rent
C:
R:Reel
Q: 232
K:G
M:4/4
L:1/8
ge|dG BG dG Be|dB GB FG Ae|dG BG dG Bd|ef ga ba ge|
dG BG dG Be|dB GB FG Ae|dG BG dG Bd|ef ga bg g2|
|:ba gf gd Bd|eg dB BA A2|ba gf gd Bd|eg fa g2 ga|
ba gf gd Bd|eg dB BA Ac|BG dG eG dG|1eg fa g2 ga:|2eg fa g2 ge|
dG BG dG Be|dB GB FG Ae|dG BG dG Bd|ef ga ba ge|
dG BG dG Be|dB GB FG Ae|dG BG dG Bd|ef ga bg g2||
